X:1
T: Molly Brallaghan
C:
R:Jig
Q:180
K:G
M:6/8
L:1/16
|:B2|c2e2c2 B2d2B2|A2G2A2 B2G2E2|G2E2D2 D2E2G2|A2G2A2 B2G2E2|
c2e2c2 B2d2B2|A2G2A2 B2G2E2|G2E2D2 D2E2G2|B2c2A2 G4:|
|:BA|G2B2d2 d2e2f2|g2f2g2 d2B2G2|c2e2c2 B2d2B2|A2G2A2 B2G2E2|
g2a2g2 g2d2B2|A2G2A2 B2G2E2|G2E2D2 D2E2G2|B2c2A2 G4:|
